src/icons/svg/form.svg

<?xml version="1.0" encoding="UTF-8"?>
<svg width="40px" height="41px" viewBox="0 0 40 41" version="1.1" xmlns="http://www.w3.org/2000/svg"
>
    <path d="M26.2872857,7.44624844 C25.9679461,7.44624844 25.6996382,7.34606346 25.482049,7.14569351 C25.2631546,6.94397154 25.0792771,6.70730063 24.9379193,6.4453379 C24.7959877,6.18620158 24.6864248,5.91061207 24.611692,5.62476032 C24.5390579,5.34455546 24.5027408,5.11099923 24.5027408,4.92409163 L24.5027408,0 L24.5897765,0 C24.8508836,0 25.0975891,0.0266116346 25.32958,0.0801479818 C25.5618839,0.133371251 25.8445934,0.260167863 26.1783346,0.460224739 C26.5120758,0.660594694 26.918138,0.940799552 27.3968344,1.30115239 C27.8758438,1.66119215 28.4778929,2.13519233 29.2032947,2.72252676 C29.986616,3.36277138 30.6102675,3.9031441 31.0745623,4.34364492 C31.538857,4.78383267 31.8942006,5.15764786 32.1409061,5.46446436 C32.3872985,5.77128085 32.5397675,6.03176179 32.5980001,6.24528102 C32.6559195,6.45880025 32.6847227,6.64539477 32.6847227,6.80569074 L32.6847227,7.44624844 L26.2872857,7.44624844 Z M39.8222762,26.3016873 C39.9093119,26.5152066 39.9675444,26.7822621 39.9963476,27.102541 C40.0254638,27.4228198 39.8805087,27.7296363 39.5611691,28.0229905 C39.4162139,28.1566748 39.2856604,28.2834714 39.1698215,28.4033803 C39.0533565,28.5236023 38.9519192,28.6237872 38.8648835,28.7039352 C38.7709882,28.7932293 38.6690094,28.8736176 38.5602585,28.9440661 L34.8609282,25.5812947 C35.0611559,25.4264911 35.2571116,25.2662396 35.4485757,25.1007199 C35.6245035,24.9475083 35.8058933,24.8006838 35.9923923,24.6605322 C36.3405351,24.3668649 36.7177942,24.2400683 37.1241695,24.2801423 C37.5302317,24.3202163 37.8639729,24.4069389 38.12508,24.5399971 C38.4153034,24.6736814 38.7271291,24.9072377 39.0608703,25.2409789 C39.3942985,25.574407 39.6482048,25.9281852 39.8222762,26.3016873 L39.8222762,26.3016873 Z M24.459536,30.0248115 C25.0975891,30.0248115 25.6342049,29.8648287 26.0696965,29.5445498 L17.6262944,37.6313559 L5.61442874,37.6313559 C5.06309829,37.6313559 4.46104919,37.4842093 3.80796837,37.1908551 C3.14697082,36.8919827 2.53161487,36.5010346 1.98021869,36.0296486 C1.42101517,35.5570332 0.94316896,34.9958442 0.565732044,34.3684565 C0.188786067,33.7413611 0,33.0942288 0,32.4267464 L0,5.1642225 C0,4.60381278 0.137754344,4.01679143 0.413263031,3.40284537 C0.690371244,2.78696277 1.0735632,2.22457347 1.54535327,1.74134014 C2.02377715,1.24783093 2.57401086,0.82942954 3.17742917,0.50029873 C3.78636599,0.166870603 4.42473214,0 5.09252763,0 L21.7608032,0 L21.7608032,5.00423962 C21.7608032,5.51142606 21.8478389,6.05837342 22.0219103,6.64539477 C22.1940206,7.22857397 22.4665149,7.77727076 22.8271471,8.26682602 C23.1900045,8.76055011 23.6615001,9.17412622 24.2416337,9.50786742 C24.8217674,9.84160863 25.518366,10.0081662 26.3308036,10.0081662 L32.6847227,10.0081662 L32.6847227,23.2591948 L26.7224642,28.9440661 C27.0418038,28.5170276 27.2011606,28.0499152 27.2011606,27.5427287 C27.2011606,26.8489478 26.9328527,26.2550387 26.3959238,25.7613146 C25.859308,25.2675905 25.2137411,25.0205719 24.459223,25.0205719 L8.13877709,25.0205719 C7.38457206,25.0205719 6.74620591,25.2675905 6.22399171,25.7613146 C5.70177752,26.2550387 5.44067042,26.8489478 5.44067042,27.5427287 C5.44067042,28.2368228 5.70177752,28.8238441 6.22399171,29.3041059 C6.74620591,29.7846807 7.38457206,30.0248115 8.13909017,30.0248115 L24.4598491,30.0248115 L24.459536,30.0248115 Z M8.13877709,15.0124058 C7.38425898,15.0124058 6.74589283,15.2594244 6.22367864,15.7531484 C5.70146444,16.2468725 5.44035734,16.8404685 5.44035734,17.5345626 C5.44035734,18.2283435 5.70146444,18.815678 6.22367864,19.2959397 C6.74589283,19.7762014 7.38425898,20.0166454 8.13877709,20.0166454 L24.459536,20.0166454 C25.2137411,20.0166454 25.858995,19.7762014 26.3959238,19.2959397 C26.9328527,18.815678 27.2011606,18.2283435 27.2011606,17.5345626 C27.2011606,16.8404685 26.9328527,16.2468725 26.3959238,15.7531484 C25.859308,15.2594244 25.2137411,15.0124058 24.459223,15.0124058 L8.13877709,15.0124058 Z M24.5462587,35.0691251 L25.1119907,34.5484763 L26.20025,33.5478789 C26.6818658,33.1039395 27.1605723,32.6568545 27.6363391,32.2066525 C28.1552195,31.7160452 28.6774459,31.2289887 29.2029816,30.7455172 C30.4505977,29.5977731 31.8578835,28.3166577 33.4248392,26.902171 L37.0806516,30.2649424 L32.8587941,34.1483626 L31.2921515,35.5894609 L29.8560625,36.9106503 C29.5111357,37.2265549 29.1701671,37.5467543 28.8332365,37.8711737 C28.5577278,38.1382293 28.4052588,38.2850629 28.3761425,38.3116746 C28.2311874,38.4184342 28.0715176,38.5317684 27.8974462,38.6519904 C27.7233748,38.7718993 27.5493034,38.8720843 27.375232,38.9522322 C27.2011606,39.0323802 26.9328527,39.1322521 26.5699952,39.2524741 C26.2026059,39.3741139 25.8325608,39.4875804 25.4601335,39.5927899 C25.0998622,39.6951905 24.7371014,39.788621 24.3721873,39.8729948 C24.0240445,39.9531428 23.7629374,40.0063661 23.588866,40.0329777 C23.2407232,40.086201 23.0084193,40.04644 22.8925804,39.9130688 C22.7764168,39.7796975 22.7473122,39.552716 22.8055447,39.2324371 C22.8343479,39.0724542 22.8925804,38.8320103 22.9796161,38.5117314 C23.0666518,38.1914526 23.1680891,37.8645991 23.284241,37.531171 L23.6104684,36.5903714 C23.7122187,36.2967042 23.7920536,36.0966473 23.8499731,35.9898877 C24.0239481,35.6430565 24.259931,35.3309947 24.5462587,35.0691251 L24.5462587,35.0691251 Z"
          id="形状"></path>
</svg>

<svg width="40" height="41" xmlns="http://www.w3.org/2000/svg"><path d="M26.287 7.446c-.32 0-.587-.1-.805-.3a2.689 2.689 0 0 1-.544-.7 3.608 3.608 0 0 1-.326-.821 2.894 2.894 0 0 1-.11-.7V0h.088c.26 0 .508.027.74.08.232.053.515.18.848.38.334.2.74.48 1.219.841.479.36 1.08.834 1.806 1.422.784.64 1.407 1.18 1.872 1.62.464.44.82.815 1.066 1.121.246.307.399.568.457.781.058.214.087.4.087.56v.641h-6.398zm13.535 18.856c.087.213.146.48.174.8.03.32-.115.628-.435.921-.145.134-.275.26-.391.38-.117.12-.218.22-.305.3-.094.09-.196.17-.305.241l-3.7-3.363c.201-.155.397-.315.589-.48.176-.153.357-.3.543-.44.349-.294.726-.42 1.132-.38.406.04.74.126 1.001.259.29.134.602.367.936.701.333.333.587.687.761 1.06zM24.46 30.025c.638 0 1.174-.16 1.61-.48l-8.444 8.086H5.614c-.55 0-1.153-.147-1.806-.44A7.686 7.686 0 0 1 1.98 36.03a6.691 6.691 0 0 1-1.414-1.662C.189 33.741 0 33.094 0 32.427V5.164c0-.56.138-1.147.413-1.761A5.764 5.764 0 0 1 1.545 1.74 6.824 6.824 0 0 1 3.177.501 3.933 3.933 0 0 1 5.093 0H21.76v5.004c0 .507.087 1.054.26 1.641a5.23 5.23 0 0 0 .806 1.622c.363.494.835.907 1.415 1.24.58.335 1.276.501 2.089.501h6.354V23.26l-5.963 5.685c.32-.427.48-.894.48-1.401 0-.694-.27-1.288-.806-1.782-.537-.493-1.182-.74-1.937-.74H8.14c-.754 0-1.393.247-1.915.74-.522.494-.783 1.088-.783 1.782s.26 1.28.783 1.761c.522.48 1.16.72 1.915.72h16.32zM8.139 15.012c-.755 0-1.393.247-1.915.741-.523.494-.784 1.087-.784 1.782 0 .693.261 1.28.784 1.76.522.481 1.16.722 1.915.722h16.32c.755 0 1.4-.24 1.937-.721.537-.48.805-1.068.805-1.761 0-.695-.268-1.288-.805-1.782s-1.182-.74-1.937-.74H8.14zM24.546 35.07l.566-.52 1.088-1.001c.482-.444.96-.891 1.436-1.341.52-.491 1.041-.978 1.567-1.461a611.236 611.236 0 0 1 4.222-3.844l3.656 3.363-4.222 3.883-1.567 1.441-1.436 1.322c-.345.316-.686.636-1.023.96-.275.267-.428.414-.457.44-.145.107-.304.22-.479.341-.174.12-.348.22-.522.3-.174.08-.442.18-.805.3a26.142 26.142 0 0 1-2.198.621c-.348.08-.61.133-.783.16-.348.053-.58.013-.696-.12-.117-.133-.146-.36-.087-.68.028-.16.087-.401.174-.721.087-.32.188-.647.304-.98l.326-.942c.102-.293.182-.493.24-.6a3.18 3.18 0 0 1 .696-.92z"/></svg>
